src/components/00-materials/images-raw/Health/Health Kit.svg

<svg xmlns="http://www.w3.org/2000/svg" viewBox="0 0 96 96"><defs><style>.cls-2{fill:none;stroke:#00008f;stroke-linecap:round;stroke-linejoin:round;stroke-width:2px}</style></defs><g id="Layer_2" data-name="Layer 2"><g id="icons"><path fill="#fff" d="M0 0h96v96H0z"/><path class="cls-2" d="M61 24l-3-3.5c-1.62-1.92-2.6-2.5-5.39-2.5h-9.22c-2.79 0-3.77.58-5.39 2.5L35 24M60 43h-7v-7a1 1 0 0 0-1-1h-8a1 1 0 0 0-1 1v7h-7a1 1 0 0 0-1 1v8a1 1 0 0 0 1 1h7v7a1 1 0 0 0 1 1h8a1 1 0 0 0 1-1v-7h7a1 1 0 0 0 1-1v-8a1 1 0 0 0-1-1z"/><rect class="cls-2" x="16" y="24" width="64" height="48" rx="5"/><path class="cls-2" d="M34 24v3a3 3 0 0 1-3 3h-4a3 3 0 0 1-3-3v-3M72 24v3a3 3 0 0 1-3 3h-4a3 3 0 0 1-3-3v-3M34 72v5H24v-5M72 72v5H62v-5"/></g></g></svg>

<svg xmlns="http://www.w3.org/2000/svg" viewBox="0 0 96 96"><defs><style>.cls-1{fill:#fff;}.cls-2{fill:none;stroke:#00008f;stroke-linecap:round;stroke-linejoin:round;stroke-width:2px;}</style></defs><title>Health Kit</title><g id="Layer_2" data-name="Layer 2"><g id="icons"><rect class="cls-1" width="96" height="96"/><path class="cls-2" d="M61,24l-3-3.5c-1.62-1.92-2.6-2.5-5.39-2.5H43.39c-2.79,0-3.77.58-5.39,2.5L35,24"/><path class="cls-2" d="M60,43H53V36a1,1,0,0,0-1-1H44a1,1,0,0,0-1,1v7H36a1,1,0,0,0-1,1v8a1,1,0,0,0,1,1h7v7a1,1,0,0,0,1,1h8a1,1,0,0,0,1-1V53h7a1,1,0,0,0,1-1V44A1,1,0,0,0,60,43Z"/><rect class="cls-2" x="16" y="24" width="64" height="48" rx="5"/><path class="cls-2" d="M34,24v3a3,3,0,0,1-3,3H27a3,3,0,0,1-3-3V24"/><path class="cls-2" d="M72,24v3a3,3,0,0,1-3,3H65a3,3,0,0,1-3-3V24"/><polyline class="cls-2" points="34 72 34 77 24 77 24 72"/><polyline class="cls-2" points="72 72 72 77 62 77 62 72"/></g></g></svg>
